src/assets/icon-diamond.svg

<?xml version="1.0" encoding="UTF-8"?>
<svg width="16px" height="15.0000008px" viewBox="0 0 16 15.0000008" version="1.1" xmlns="http://www.w3.org/2000/svg" xmlns:xlink="http://www.w3.org/1999/xlink">
    <title>icon_底款</title>
    <g id="移动端" stroke="none" stroke-width="1" fill="none" fill-rule="evenodd">
        <g id="藏品展示-3D" transform="translate(-244.000000, -687.000000)" fill="rgba(255,255,255,0.75)" fill-rule="nonzero">
            <g id="编组-3" transform="translate(16.000000, 666.000000)">
                <g id="编组-7" transform="translate(228.000000, 16.000000)">
                    <g id="icon_底款" transform="translate(0.000000, 5.000000)">
                        <path d="M12.0235062,0 L3.96942384,0 C3.51779407,0 3.10111007,0.242773665 2.87902113,0.635615193 L0.161777664,5.4432169 C-0.0995877638,5.90564057 -0.0401068586,6.4825318 0.310127515,6.882027 L7.0506565,14.5731892 C7.28803749,14.8440471 7.63074808,14.9995792 7.99111783,15 C8.35148758,15.0004174 8.69455974,14.8456827 8.93257138,14.5753778 L15.6878102,6.90610096 C16.0395816,6.50686759 16.1000978,5.92904992 15.8386638,5.46572762 L13.1142219,0.636553139 C12.8923204,0.243252576 12.4754441,0 12.0235062,0 Z M3.96942384,1.25059553 L12.0235062,1.25059553 L14.7479481,6.07976999 L7.99270935,13.7493595 L1.25186739,6.05819722 L3.96942384,1.25059553 Z" id="形状"></path>
                        <path d="M11.4429388,4.37708424 L11.4429388,5.00238199 C11.4429388,5.34772439 11.162692,5.62767973 10.8169901,5.62767973 L5.18345142,5.62767973 C4.83774948,5.62767973 4.55750269,5.34772439 4.55750269,5.00238199 L4.55750269,4.37708424 L11.4429388,4.37708424 L11.4429388,4.37708424 Z" id="路径"></path>
                    </g>
                </g>
            </g>
        </g>
    </g>
</svg>

<svg xmlns="http://www.w3.org/2000/svg" width="16" height="15" fill="rgba(255,255,255,0.75)" xmlns:v="https://vecta.io/nano"><path d="M12.024 0H3.969a1.25 1.25 0 0 0-1.09.636L.162 5.443A1.25 1.25 0 0 0 .31 6.882l6.741 7.691a1.25 1.25 0 0 0 1.882.002l6.755-7.669a1.25 1.25 0 0 0 .151-1.44L13.114.637A1.25 1.25 0 0 0 12.024 0zM3.969 1.251h8.054l2.724 4.829-6.755 7.67-6.741-7.691 2.718-4.808zm7.474 3.126v.625c0 .345-.28.625-.626.625H5.183c-.346 0-.626-.28-.626-.625v-.625h6.885 0z"/></svg>
